X: 08055
T: JEREMIAH'S JIG
C: Bob McQuillen 3 May 91
B: Bob's Note Book 8 #55
R: jig
Z: 2019/2021 John Chambers <jc:trillian.mit.edu>
N: In the NEFFA 2019 Bob McQuillen Slow Jam set.
M: 6/8
L: 1/8
K: Em
f \
| geg dBG | BdB AFD | EGB AGA | Bed e2d |\
| ege dBd | edB AFD | Bed BAB | GEE E2 :|
|: D \
| EGB ABA | GED E2D | EGB AGA | Beg f2g/a/ |\
| bge e2g/e/ | dBG A2B/c/ | BGE AFD | E>FE E2 :|
%%begintext align
%% This one's for
%% Jeremiah McLane, who lives in Hartland VT
%% with wife Tii McLane. They are both fine
%% musicians, she on the flute and Jerry on the accordion.
%% I'm always thrilled when I get to play a dance
%% with either one of them (preferably _both_!)
%%endtext

%%sep 1 1 500

%%sep 1 1 500

